src/assets/footer/notion.svg

<svg width="58" height="58" viewBox="0 0 58 58" fill="none" xmlns="http://www.w3.org/2000/svg">
<rect x="0.5" y="0.5" width="57" height="57" rx="9.5" stroke="#A7A7A7"/>
<path d="M43.1264 20.4535C42.9608 20.3023 42.752 20.2159 42.5288 20.2159C42.5144 20.2159 42.4928 20.2231 42.4712 20.2231L20.972 21.6055C20.5184 21.6343 20.1584 22.0231 20.1584 22.4767V43.1767C20.1584 43.4215 20.2592 43.6447 20.432 43.8103C20.612 43.9759 20.8424 44.0623 21.0872 44.0479L42.5864 42.6583C43.0472 42.6295 43.4 42.2479 43.4 41.7871V21.0943C43.4 20.8495 43.3064 20.6191 43.1264 20.4535ZM38.4392 26.0623C38.0072 26.1991 37.8704 26.2063 37.8704 26.2063V38.6191C37.136 39.0151 36.5312 39.2023 35.8976 39.2023C35.1272 39.2023 34.688 39.0295 34.0976 38.1223C32.8448 36.1855 28.7624 29.6191 28.7624 29.6191V37.8631L30.368 38.2015C30.368 38.2015 30.3248 39.1375 28.9208 39.2455C27.6896 39.3391 25.004 39.4759 25.004 39.4759C25.004 39.1375 25.076 38.6695 25.6088 38.5327C25.8608 38.4679 26.6168 38.2663 26.6168 38.2663V27.1423H25.004C25.004 26.4007 25.22 25.8247 25.9976 25.7671L30.1664 25.5295L35.732 34.1119V26.4727L34.1192 26.3359C34.1192 25.6663 34.7672 25.2559 35.3216 25.1983L38.9504 24.9967C38.9504 25.4647 38.9288 25.9039 38.4392 26.0623ZM14.5856 17.1487L18.7184 21.2815V42.5503L15.032 38.1151C14.7368 37.6975 14.5856 37.2151 14.5856 36.7039V17.1487ZM41.7584 18.8551L20.8352 20.1727C20.1224 20.2231 19.4312 19.9567 18.9272 19.4599L15.4928 16.0183L35.0696 14.6575C35.6528 14.6071 36.236 14.7799 36.7112 15.1327L41.7584 18.8551Z" fill="white"/>
</svg>

<svg xmlns="http://www.w3.org/2000/svg" width="58" height="58" fill="none" viewBox="0 0 58 58"><rect width="57" height="57" x=".5" y=".5" stroke="#a7a7a7" rx="9.5"/><path fill="#fff" d="M43.126 20.454a.88.88 0 0 0-.597-.238c-.015 0-.036.007-.058.007l-21.499 1.383a.88.88 0 0 0-.814.87v20.7a.87.87 0 0 0 .93.872l21.498-1.39a.87.87 0 0 0 .814-.87V21.093a.86.86 0 0 0-.274-.64m-4.687 5.608c-.432.137-.569.144-.569.144V38.62c-.734.396-1.339.583-1.972.583-.77 0-1.21-.172-1.8-1.08-1.253-1.937-5.336-8.503-5.336-8.503v8.244l1.606.339s-.043.936-1.447 1.044c-1.231.093-3.917.23-3.917.23 0-.338.072-.806.605-.943.252-.065 1.008-.267 1.008-.267V27.142h-1.613c0-.741.216-1.317.994-1.375l4.168-.238 5.566 8.583v-7.64l-1.613-.136c0-.67.648-1.08 1.203-1.138l3.628-.201c0 .468-.021.907-.51 1.065M14.586 17.15l4.132 4.133V42.55l-3.686-4.435a2.4 2.4 0 0 1-.446-1.411zm27.172 1.706-20.923 1.318a2.47 2.47 0 0 1-1.908-.713l-3.434-3.442 19.577-1.36a2.4 2.4 0 0 1 1.641.475z"/></svg>
